X: 21331
M: 2/4
L: 1/16
K: G
d2(gf) (ga)b2 | e2(a^g) (ab)c'2 |\
e'2f2 (f^efa) | g2(gf) g2z2 H|]
(dB)b2 (cA)a2 | gfga b2d2 |\
(dB)b2 (cA)a2 | g2gg g2z2 |\
(dB)b2 (cA)a2 | gfga b2d2 |\
dgfe dcBA | G2F2!segno!G2 "D.C."z2 |]
K:=f
.g2.e'2.d'2.c'2 | .b2.a2.g2.e2 |\
.c'2.e2.f2.d2 | a2(g^f) g2e2 |\
.g2.e'2.d'2.c'2 | b2.a2.g2.e2 |\
c'2e2 d'3b | c'2c'2c'2 "^D.C."z2 |]


